public/assets/home.svg

<svg width="24" height="24" viewBox="0 0 24 24" fill="none" xmlns="http://www.w3.org/2000/svg">
<path d="M9 17.25C8.58579 17.25 8.25 17.5858 8.25 18C8.25 18.4142 8.58579 18.75 9 18.75H15C15.4142 18.75 15.75 18.4142 15.75 18C15.75 17.5858 15.4142 17.25 15 17.25H9Z" fill="white"/>
<path fill-rule="evenodd" clip-rule="evenodd" d="M12 1.25C11.2919 1.25 10.6485 1.45282 9.95055 1.79224C9.27585 2.12035 8.49642 2.60409 7.52286 3.20832L5.45628 4.4909C4.53509 5.06261 3.79744 5.5204 3.2289 5.95581C2.64015 6.40669 2.18795 6.86589 1.86131 7.46263C1.53535 8.05812 1.38857 8.69174 1.31819 9.4407C1.24999 10.1665 1.24999 11.0541 1.25 12.1672V13.7799C1.24999 15.6837 1.24998 17.1866 1.4027 18.3616C1.55937 19.567 1.88856 20.5401 2.63236 21.3094C3.37958 22.0824 4.33046 22.4277 5.50761 22.5914C6.64849 22.75 8.10556 22.75 9.94185 22.75H14.0581C15.8944 22.75 17.3515 22.75 18.4924 22.5914C19.6695 22.4277 20.6204 22.0824 21.3676 21.3094C22.1114 20.5401 22.4406 19.567 22.5973 18.3616C22.75 17.1866 22.75 15.6838 22.75 13.7799V12.1672C22.75 11.0541 22.75 10.1665 22.6818 9.4407C22.6114 8.69174 22.4646 8.05812 22.1387 7.46263C21.8121 6.86589 21.3599 6.40669 20.7711 5.95581C20.2026 5.5204 19.4649 5.06262 18.5437 4.49091L16.4771 3.20831C15.5036 2.60409 14.7241 2.12034 14.0494 1.79224C13.3515 1.45282 12.7081 1.25 12 1.25ZM8.27953 4.50412C9.29529 3.87371 10.0095 3.43153 10.6065 3.1412C11.1882 2.85833 11.6002 2.75 12 2.75C12.3998 2.75 12.8118 2.85833 13.3935 3.14119C13.9905 3.43153 14.7047 3.87371 15.7205 4.50412L17.7205 5.74537C18.6813 6.34169 19.3559 6.76135 19.8591 7.1467C20.3487 7.52164 20.6303 7.83106 20.8229 8.18285C21.0162 8.53589 21.129 8.94865 21.1884 9.58104C21.2492 10.2286 21.25 11.0458 21.25 12.2039V13.725C21.25 15.6959 21.2485 17.1012 21.1098 18.1683C20.9736 19.2163 20.717 19.8244 20.2892 20.2669C19.8649 20.7058 19.2871 20.9664 18.2858 21.1057C17.2602 21.2483 15.9075 21.25 14 21.25H10C8.09247 21.25 6.73983 21.2483 5.71422 21.1057C4.71286 20.9664 4.13514 20.7058 3.71079 20.2669C3.28301 19.8244 3.02642 19.2163 2.89019 18.1683C2.75149 17.1012 2.75 15.6959 2.75 13.725V12.2039C2.75 11.0458 2.75076 10.2286 2.81161 9.58104C2.87103 8.94865 2.98385 8.53589 3.17709 8.18285C3.36965 7.83106 3.65133 7.52164 4.14092 7.1467C4.6441 6.76135 5.31869 6.34169 6.27953 5.74537L8.27953 4.50412Z" fill="white"/>
</svg>

<svg width="24" height="24" fill="none" xmlns="http://www.w3.org/2000/svg"><path d="M9 17.25a.75.75 0 0 0 0 1.5h6a.75.75 0 0 0 0-1.5H9Z" fill="#fff"/><path fill-rule="evenodd" clip-rule="evenodd" d="M12 1.25c-.708 0-1.351.203-2.05.542-.674.328-1.454.812-2.427 1.416L5.456 4.491c-.92.572-1.659 1.03-2.227 1.465-.589.45-1.041.91-1.368 1.507-.326.595-.472 1.229-.543 1.978-.068.725-.068 1.613-.068 2.726v1.613c0 1.904 0 3.407.153 4.582.156 1.205.486 2.178 1.23 2.947.747.773 1.697 1.119 2.875 1.282 1.14.159 2.598.159 4.434.159h4.116c1.836 0 3.294 0 4.434-.159 1.177-.163 2.128-.509 2.876-1.282.743-.769 1.073-1.742 1.23-2.947.152-1.175.152-2.678.152-4.582v-1.613c0-1.113 0-2-.068-2.726-.07-.75-.217-1.383-.543-1.978-.327-.597-.78-1.056-1.368-1.507-.568-.436-1.306-.893-2.227-1.465l-2.067-1.283c-.973-.604-1.753-1.088-2.428-1.416-.697-.34-1.34-.542-2.049-.542ZM8.28 4.504c1.015-.63 1.73-1.072 2.327-1.363.581-.283.993-.391 1.393-.391s.812.108 1.393.391c.598.29 1.312.733 2.327 1.363l2 1.241c.961.597 1.636 1.016 2.14 1.402.489.375.77.684.963 1.036.193.353.306.766.365 1.398.061.648.062 1.465.062 2.623v1.521c0 1.97-.002 3.376-.14 4.443-.136 1.048-.393 1.656-.82 2.099-.425.439-1.003.7-2.004.839-1.026.142-2.379.144-4.286.144h-4c-1.908 0-3.26-.002-4.286-.144-1.001-.14-1.579-.4-2.003-.84-.428-.442-.685-1.05-.82-2.098-.14-1.067-.141-2.472-.141-4.443v-1.521c0-1.158 0-1.975.062-2.623.059-.632.172-1.045.365-1.398.193-.352.474-.661.964-1.036.503-.386 1.178-.805 2.139-1.402l2-1.24Z" fill="#fff"/></svg>
